build/logo/PostgreSQLSolid.svg

<svg xmlns="http://www.w3.org/2000/svg" fill="none" viewBox="0 0 24 24" focusable="false"><path d="M0 0H24V24H0z"/><path fill="#74767B" fill-rule="evenodd" d="M14.7856 16.8735C15.0812 19.5287 17.333 21.5934 20.0671 21.5934C20.9413 21.5934 21.65 20.8847 21.65 20.0105L21.65 17.5645C21.65 16.9872 21.182 16.5192 20.6047 16.5192C19.8622 16.5192 19.2643 15.9098 19.2785 15.1674L19.3636 10.7192C19.4455 6.43774 15.9972 2.92285 11.715 2.92285L8.42838 2.92285C8.04178 2.92285 7.72838 3.23625 7.72838 3.62285L7.72838 11.2235C7.72838 13.6259 9.67593 15.5735 12.0784 15.5735L15.6433 15.5735C16.0023 15.5735 16.2933 15.8645 16.2933 16.2235C16.2933 16.5825 16.0023 16.8735 15.6433 16.8735L14.7856 16.8735ZM3.46728 2.92891L5.72838 2.92893C6.11498 2.92893 6.42838 3.24233 6.42838 3.62893L6.42838 11.2235C6.42838 14.3439 8.95796 16.8735 12.0784 16.8735L12.1976 16.8735C12.5842 16.8735 12.8976 17.1869 12.8976 17.5735L12.8976 18.0556C12.8976 18.9669 12.1588 19.7056 11.2476 19.7056L8.36725 19.7056C5.24686 19.7056 2.71729 17.176 2.71729 14.0556L2.71729 3.67891C2.71729 3.2647 3.05308 2.92891 3.46728 2.92891ZM16.5392 12C16.5392 12.5523 16.0915 13 15.5392 13C14.9869 13 14.5392 12.5523 14.5392 12C14.5392 11.4477 14.9869 11 15.5392 11C16.0915 11 16.5392 11.4477 16.5392 12Z"/></svg>

<svg xmlns="http://www.w3.org/2000/svg" fill="none" viewBox="0 0 24 24" focusable="false"><path fill="#74767B" fill-rule="evenodd" d="M14.78 16.87c.3 2.65 2.55 4.72 5.28 4.72.88 0 1.58-.71 1.58-1.58v-2.45c0-.58-.46-1.05-1.04-1.05-.74 0-1.34-.61-1.33-1.35l.09-4.45c.08-4.28-3.37-7.79-7.65-7.79H8.42c-.38 0-.7.31-.7.7v7.6c0 2.4 1.95 4.35 4.35 4.35h3.57c.36 0 .65.29.65.65s-.29.65-.65.65zM5.72 2.92H3.46c-.41 0-.75.34-.75.75v10.38a5.65 5.65 0 0 0 5.65 5.65h2.88c.91 0 1.65-.74 1.65-1.65v-.48c0-.39-.31-.7-.7-.7h-.12a5.65 5.65 0 0 1-5.65-5.65v-7.6c0-.38-.31-.7-.7-.7M16.53 12c0 .55-.44 1-1 1-.55 0-1-.45-1-1 0-.56.45-1 1-1 .56 0 1 .44 1 1"/></svg>
